X: 1251
T: Bert Bretz's Heel and Toe Polka
B: australian traditional tunes wiki
M:2/4
L:1/16
R: Polka
Q: 1/4=100
K:G
V:1 
||"G"d2ef g2fe |d2G2 B4|"D"B2AB c2A2|e2d2 "G"d4|d2ef g2fe|d2G2 B4|"D"B2AB c2F2|A2G2 "G"G4||
|:"D"F2A2 F2A2 |e2d2 "G"B4|"D"d2ed c2A2|1e2d2 "G"B4:|2A2G2 "G"G4||
% abcbook-tune_id 6342d53aeaa1cdd14cfad4de


% abcbook-boost 0
% abcbook-tablature 
% abcbook-transpose 
% abcbook-lastupdated 1665324356043
% abcbook-soundfonts 
% abcbook-repeats 1
% NFF Book 2013

